X: 4
T: Peter Street
R: reel
M: 4/4
L: 1/8
K: Gmaj
|:G2 (3BAG dG G2|dGgG fGeG|dG G2 dG (3Bcd|ADcD BDAD|
G2 (3BAG dG G2|dGgG fGeG|dedB g3e|dBAB G4:||
|:D2 (3FED AD D2|ADcD BDAD|G2 (3BAG dG G2|dGgG fGeG|
d^cdB g3e|d^cdB g3e|dBgf edcB|AGFE DEFD:||


Tune 1171	Setting 14439

